packages/core/src/svgs/tokens/mono/WOMBAT.svg

<svg width="24" height="24" viewBox="0 0 24 24" fill="none" xmlns="http://www.w3.org/2000/svg">
<path fill-rule="evenodd" clip-rule="evenodd" d="M17.5377 14.3105C18.0845 14.2516 18.4431 14.2047 18.637 13.8872C18.696 13.7832 18.7298 13.6669 18.7359 13.5474C18.742 13.428 18.7203 13.3088 18.6724 13.1994C18.4783 12.7232 18.2491 12.2587 17.9845 11.8178C17.8114 11.5528 17.6692 11.2687 17.5613 10.9712C17.5142 10.2011 15.5036 7.69655 14.222 6.59716C14.1044 6.13271 13.928 5.69178 13.6811 5.28025C13.5808 5.07367 13.427 4.89769 13.2358 4.77055C13.0446 4.6434 12.8227 4.56971 12.5934 4.55713C12.3935 4.55713 12.2054 4.61592 12.0349 4.71587C11.7468 4.88636 11.4881 5.09801 11.2706 5.3508C10.7474 5.26849 10.2242 5.22734 9.70097 5.22147C9.4952 5.22147 9.28944 5.23322 9.08361 5.25087C8.94251 5.00394 8.77203 4.78054 8.56626 4.58064C8.3311 4.34549 8.00774 4.21026 7.66676 4.21614C7.34341 4.21026 7.02594 4.33372 6.7849 4.54537C6.47919 4.8158 6.21463 5.13328 6.01475 5.4919H5.94419C5.87218 5.48597 5.80355 5.45879 5.74703 5.41376C5.6905 5.36876 5.64862 5.30796 5.62672 5.2391C5.60355 5.17126 5.60126 5.09802 5.62012 5.02886C5.63899 4.95969 5.67814 4.89777 5.73254 4.85109C5.73254 4.85109 5.53266 4.47482 5.45035 4.54537C5.45035 4.55126 5.42684 4.54537 5.41507 4.53362L5.39156 4.52773L5.35629 4.56301C4.20322 5.58528 3.30279 6.86088 2.72567 8.28971C2.14856 9.71859 1.91047 11.2617 2.03009 12.798C2.14971 14.3344 2.6238 15.8219 3.41512 17.1443C4.20645 18.4666 5.29349 19.5873 6.59089 20.4189C7.75004 21.1706 9.05378 21.6712 10.4181 21.8886L10.5475 21.9062C10.6651 21.918 10.618 21.4359 10.618 21.4359C10.143 21.3775 9.70522 21.1487 9.38628 20.7918C9.06728 20.435 8.8887 19.9744 8.88373 19.4958C8.8507 19.0304 8.98911 18.5691 9.27284 18.1987C9.55666 17.8283 9.96614 17.5745 10.424 17.4852C10.7947 17.4037 11.1733 17.3644 11.5529 17.3677C12.2171 17.3852 12.8814 17.45 13.534 17.5675L14.0808 17.6498H14.1278C14.3982 17.691 14.6805 17.7203 14.9391 17.738C15.0567 17.7497 15.1919 17.7497 15.3154 17.7497C16.6441 17.7497 17.3849 17.2206 17.7787 16.7679C17.874 16.6572 17.9403 16.5244 17.9716 16.3816C18.0029 16.2389 17.9982 16.0907 17.958 15.9502C17.9178 15.8096 17.8433 15.6813 17.7411 15.5768C17.6391 15.4723 17.5126 15.3946 17.3731 15.3511C17.1941 15.3212 17.032 15.2271 16.9174 15.0865C16.8027 14.9458 16.7432 14.7681 16.7499 14.5868C16.7554 14.5534 16.7674 14.5215 16.7851 14.4928C16.8058 14.464 16.832 14.4397 16.8624 14.4216C16.8927 14.4034 16.9264 14.3916 16.9615 14.3869C17.1511 14.3574 17.3412 14.3319 17.5318 14.3105H17.5377ZM11.6352 11.1182C12.223 12.2763 12.8227 12.1471 13.5164 11.8883C13.5164 11.8883 13.1049 9.88938 11.6352 11.124V11.1182Z" fill="white"/>
<path d="M17.9783 16.2678C17.9783 17.614 16.3439 18.3843 13.9805 18.149C12.3932 17.9728 10.2121 18.0785 9.79464 18.8957C9.08912 20.2833 10.9058 21.8647 10.8235 21.8588C10.6823 21.8471 10.6941 21.9176 10.553 21.8999L10.4237 21.8765C8.87711 21.6335 7.41027 21.027 6.14371 20.1069C5.0793 19.3417 4.22747 18.3178 3.66863 17.132C1.98134 13.4693 4.40351 10.959 6.03789 10.4064C3.5628 12.4935 4.74449 16.0327 7.23721 16.6852C8.0015 16.8851 8.81868 16.8674 9.57117 16.6264C10.0827 16.5088 10.5589 16.2737 10.9704 15.9621C10.9704 15.9621 14.8272 17.132 16.1734 16.8792C16.2557 16.8616 16.3321 16.8321 16.4026 16.8087C17.2023 16.5559 17.5785 16.0445 16.9906 15.7093H16.9729L17.0258 15.6741C17.2316 15.5329 17.9783 15.1037 17.9783 16.2619V16.2678ZM8.3072 6.19107C7.81336 6.2675 7.27836 6.36744 6.83743 6.46739C6.94438 6.10259 7.14505 5.77218 7.41946 5.5091C7.47109 5.47386 7.53166 5.45404 7.59413 5.45197C7.65659 5.44988 7.71836 5.46561 7.77221 5.49734C8.0015 5.69136 8.18374 5.92652 8.3072 6.19107Z" fill="white"/>
<path fill-rule="evenodd" clip-rule="evenodd" d="M12.0057 21.4065C14.5004 21.4065 16.8929 20.4155 18.657 18.6514C20.4211 16.8873 21.4121 14.4948 21.4121 12.0001C21.4121 9.5052 20.4211 7.11268 18.657 5.34862C16.8929 3.58455 14.5004 2.59352 12.0057 2.59352C9.51082 2.59352 7.11829 3.58455 5.35424 5.34862C3.59016 7.11268 2.59913 9.5052 2.59913 12.0001C2.59913 14.4948 3.59016 16.8873 5.35424 18.6514C7.11829 20.4155 9.51082 21.4065 12.0057 21.4065ZM12.0057 21.9945C14.6564 21.9945 17.1984 20.9415 19.0727 19.0671C20.9471 17.1928 22.0001 14.6508 22.0001 12.0001C22.0001 9.34937 20.9471 6.80722 19.0727 4.9329C17.1984 3.05859 14.6564 2.00562 12.0057 2.00562C9.35498 2.00562 6.81284 3.05859 4.93852 4.9329C3.06421 6.80722 2.01123 9.34937 2.01123 12.0001C2.01123 14.6508 3.06421 17.1928 4.93852 19.0671C6.81284 20.9415 9.35498 21.9945 12.0057 21.9945Z" fill="white"/>
<path d="M16.7089 14.3513C16.2386 14.5865 16.9029 15.627 17.2967 16.1151L17.8847 16.7029C18.5902 15.292 18.7666 13.9574 18.7666 13.4695C18.1787 14.3513 17.2967 14.0574 16.7089 14.3513Z" fill="white"/>
</svg>

<svg xmlns="http://www.w3.org/2000/svg" width="24" height="24" fill="none" viewBox="0 0 24 24">
    <path fill="#fff" fill-rule="evenodd" d="M17.538 14.31c.546-.058.905-.105 1.099-.423a.77.77 0 0 0 .035-.688c-.194-.476-.423-.94-.687-1.381a4 4 0 0 1-.424-.847c-.047-.77-2.057-3.274-3.339-4.374a4.9 4.9 0 0 0-.54-1.317 1.29 1.29 0 0 0-1.089-.723c-.2 0-.388.059-.558.159-.288.17-.547.382-.764.635a11 11 0 0 0-1.57-.13q-.31.001-.617.03a3 3 0 0 0-.518-.67 1.24 1.24 0 0 0-.9-.365 1.3 1.3 0 0 0-.881.33 3.6 3.6 0 0 0-.77.946h-.07a.36.36 0 0 1-.318-.253.36.36 0 0 1 .106-.388s-.2-.376-.283-.306c0 .006-.023 0-.035-.011l-.023-.006-.036.035a9.97 9.97 0 0 0 1.235 15.856 9.9 9.9 0 0 0 3.827 1.47l.13.017c.117.012.07-.47.07-.47a1.975 1.975 0 0 1-1.734-1.94 1.91 1.91 0 0 1 1.54-2.01c.37-.082.75-.122 1.129-.118.664.017 1.328.082 1.981.2l.547.082h.047c.27.041.553.07.811.088.118.012.253.012.376.012 1.33 0 2.07-.53 2.464-.982a.88.88 0 0 0-.406-1.417.75.75 0 0 1-.623-.764.3.3 0 0 1 .035-.094.26.26 0 0 1 .177-.106q.285-.044.57-.077zm-5.903-3.192c.588 1.158 1.188 1.03 1.881.77 0 0-.411-1.999-1.88-.764z" clip-rule="evenodd"/>
    <path fill="#fff" d="M17.978 16.268c0 1.346-1.634 2.116-3.998 1.881-1.587-.176-3.768-.07-4.185.747-.706 1.387 1.11 2.969 1.028 2.963-.14-.012-.129.059-.27.04l-.13-.023a9.9 9.9 0 0 1-4.28-1.77 7.7 7.7 0 0 1-2.474-2.974c-1.688-3.663.735-6.173 2.369-6.726-2.475 2.087-1.294 5.627 1.2 6.28.763.2 1.58.181 2.333-.06a3.7 3.7 0 0 0 1.4-.664s3.856 1.17 5.202.917c.083-.017.16-.047.23-.07.8-.253 1.175-.765.588-1.1h-.018l.053-.035c.206-.141.952-.57.952.588zM8.308 6.19a23 23 0 0 0-1.47.276c.106-.364.307-.695.581-.958a.33.33 0 0 1 .353-.012c.23.194.412.43.535.694"/>
    <path fill="#fff" fill-rule="evenodd" d="M12.006 21.407a9.406 9.406 0 1 0 0-18.813 9.406 9.406 0 0 0 0 18.813m0 .587a9.994 9.994 0 1 0 0-19.987 9.994 9.994 0 0 0 0 19.987" clip-rule="evenodd"/>
    <path fill="#fff" d="M16.709 14.351c-.47.235.194 1.276.588 1.764l.588.588c.705-1.411.882-2.746.882-3.233-.588.881-1.47.587-2.058.881"/>
</svg>
